X: 54
T:Pibddawns Syr Hwmffre Littleton
M:C
L:1/8
Q:180
S:Mary Richards' (1787-1877) Collection
R:Hornpipe
A:Wales
Z:brian_martin12345@yahoo.com
K:D
A>G|F>Ad>A d>Ad>A|B>cd>ed2A>G|F>Ad>A d>Ad>A|c>de>fe2A>G|!
F>Ad>c B>eg>f|e>dc>d d>ef>g|a>fb>g f>ed>c|d2f2d2:||!
f>g|a>fb2a>fb2|a>fe>fd2f>g|a>fd'2c'>ag>f|g>fe>d c>BA>G|!
F>GA>F E>FG>A|B>cd>e f>ga>b|c'>d'a>b f>gc>e|d2f2d2:||
